src/xmb/monochrome/Sony - PlayStation Portable (PSX2PSP).svg

<svg xmlns="http://www.w3.org/2000/svg" xml:space="preserve" id="svg2" x="0" y="0" version="1.1" viewBox="0 0 64 64"><style id="style672" type="text/css">.st0{fill:#fff}</style><path id="PSP_1_" d="M58.1 19.7c-.9-1-2.2-1.7-5.1-1.7H11c-2.9 0-4.2.7-5.1 1.7C2.8 22.9 1 27.2 1 32s1.8 9.1 4.9 12.3c.9 1 2.2 1.7 5.1 1.7h42c2.9 0 4.2-.7 5.1-1.7C61.2 41.1 63 36.8 63 32s-1.8-9.1-4.9-12.3M8.5 38c-.8 0-1.5.7-1.5 1.5S7.7 41 8.5 41s1.5-.7 1.5-1.5S9.3 38 8.5 38m48-12c.8 0 1.5.7 1.5 1.5s-.7 1.5-1.5 1.5-1.5-.7-1.5-1.5.7-1.5 1.5-1.5M6 27c0-.6.4-1 1-1h1c.6 0 1 .4 1 1v.5c0 .5-.1.6-.2.7-.2.1-.4.4-.6.5-.3.2-.5.3-.7.3s-.4-.1-.7-.3c-.2-.2-.5-.4-.6-.5S6 28 6 27.5zm2.2 4.3c.2.2.5.4.6.5s.2.2.2.7v.5c0 .6-.4 1-1 1H7c-.6 0-1-.4-1-1v-.5c0-.5.1-.6.2-.7.2-.1.4-.4.6-.5.3-.2.5-.3.7-.3s.4.1.7.3m-2.5 0c-.1.1-.2.2-.7.2h-.5c-.6 0-1-.4-1-1v-1c0-.6.4-1 1-1H5c.5 0 .6.1.7.2.1.2.3.4.5.6s.3.4.3.7-.1.4-.3.7c-.2.2-.4.4-.5.6M8.5 42C7.1 42 6 40.9 6 39.5S7.1 37 8.5 37s2.5 1.1 2.5 2.5S9.9 42 8.5 42m3-11.5c0 .6-.4 1-1 1H10c-.5 0-.6-.1-.7-.2-.1-.2-.4-.4-.5-.6-.2-.2-.3-.4-.3-.7s.1-.4.3-.7c.2-.2.4-.5.5-.6s.2-.2.7-.2h.5c.6 0 1 .4 1 1zM14 41V21c0-.6.4-1 1-1h34c.6 0 1 .4 1 1v20c0 .6-.4 1-1 1H15c-.6 0-1-.4-1-1m5.5 4h-1c-.3 0-.5-.2-.5-.5s.2-.5.5-.5h1c.3 0 .5.2.5.5s-.2.5-.5.5m4 0h-1c-.3 0-.5-.2-.5-.5s.2-.5.5-.5h1c.3 0 .5.2.5.5s-.2.5-.5.5m22 0c-.7 0-1.2-.4-1.4-1h2.8c-.2.6-.7 1-1.4 1m4 0c-.7 0-1.2-.4-1.4-1h2.8c-.2.6-.7 1-1.4 1m4-13c-.8 0-1.5-.7-1.5-1.5s.7-1.5 1.5-1.5 1.5.7 1.5 1.5-.7 1.5-1.5 1.5m3 3c-.8 0-1.5-.7-1.5-1.5s.7-1.5 1.5-1.5 1.5.7 1.5 1.5-.7 1.5-1.5 1.5m3-3c-.8 0-1.5-.7-1.5-1.5s.7-1.5 1.5-1.5 1.5.7 1.5 1.5-.7 1.5-1.5 1.5" class="st0"/><g id="g688"><path id="path676" d="M31.5 24.5H28v1.1c1-.7 2.2-1.1 3.5-1.1" class="st0"/><path id="path678" d="M35 24.5h-3.5c1.3 0 2.5.4 3.5 1.1z" class="st0"/><path id="path680" d="M35.5 24v2c1.2 1.1 2 2.7 2 4.5s-.8 3.4-2 4.5v2H40V24zM38 36c-.6 0-1-.4-1-1s.4-1 1-1 1 .4 1 1-.4 1-1 1" class="st0"/><path id="path682" d="M31.5 36.5H35v-1.1c-1 .7-2.2 1.1-3.5 1.1" class="st0"/><path id="path684" d="M28 36.5h3.5c-1.3 0-2.5-.4-3.5-1.1z" class="st0"/><path id="path686" d="M27.5 26v-2H23v13h4.5v-2c-1.2-1.1-2-2.7-2-4.5s.8-3.4 2-4.5m-3 6c.3 0 .5.2.5.5s-.2.5-.5.5-.5-.2-.5-.5.2-.5.5-.5m1.5 3c0 .6-.4 1-1 1s-1-.4-1-1 .4-1 1-1 1 .4 1 1" class="st0"/></g></svg>

<?xml version="1.0" encoding="UTF-8" standalone="no"?>
<!-- Generator: Adobe Illustrator 22.1.0, SVG Export Plug-In . SVG Version: 6.00 Build 0)  -->

<svg
   xmlns:dc="http://purl.org/dc/elements/1.1/"
   xmlns:cc="http://creativecommons.org/ns#"
   xmlns:rdf="http://www.w3.org/1999/02/22-rdf-syntax-ns#"
   xmlns:svg="http://www.w3.org/2000/svg"
   xmlns="http://www.w3.org/2000/svg"
   xmlns:sodipodi="http://sodipodi.sourceforge.net/DTD/sodipodi-0.dtd"
   xmlns:inkscape="http://www.inkscape.org/namespaces/inkscape"
   version="1.1"
   id="svg2"
   inkscape:export-filename="/Users/margetts/Documents/GitHub/Working/monochrome/Sony - PlayStation Portable (PSX2PSP).png"
   inkscape:export-xdpi="360"
   inkscape:export-ydpi="360"
   inkscape:version="0.92.4 (5da689c313, 2019-01-14)"
   sodipodi:docname="Sony - PlayStation Portable (PSX2PSP).svg"
   x="0px"
   y="0px"
   viewBox="0 0 64 64"
   style="enable-background:new 0 0 64 64;"
   xml:space="preserve"><metadata
   id="metadata693"><rdf:RDF><cc:Work
       rdf:about=""><dc:format>image/svg+xml</dc:format><dc:type
         rdf:resource="http://purl.org/dc/dcmitype/StillImage" /></cc:Work></rdf:RDF></metadata><defs
   id="defs691" />
<style
   type="text/css"
   id="style672">
	.st0{fill:#FFFFFF;}
</style>
<sodipodi:namedview
   bordercolor="#666666"
   borderopacity="1"
   gridtolerance="10"
   guidetolerance="10"
   id="namedview4"
   inkscape:current-layer="svg2"
   inkscape:cx="7.2850598"
   inkscape:cy="30.341261"
   inkscape:pageopacity="0"
   inkscape:pageshadow="2"
   inkscape:window-height="851"
   inkscape:window-maximized="1"
   inkscape:window-width="1600"
   inkscape:window-x="0"
   inkscape:window-y="25"
   inkscape:zoom="83.4386"
   objecttolerance="10"
   pagecolor="#808080"
   showgrid="false">
	</sodipodi:namedview>
<path
   id="PSP_1_"
   inkscape:connector-curvature="0"
   sodipodi:nodetypes="csscscsscscsssssssssscsscsccsccscccscsscsccsccscsscsccsccsssssscsccsccscssssssssssssssssssssssssssccssccssssssssssssssss"
   class="st0"
   d="  M58.1,19.7C57.2,18.7,55.9,18,53,18H11c-2.9,0-4.2,0.7-5.1,1.7C2.8,22.9,1,27.2,1,32s1.8,9.1,4.9,12.3C6.8,45.3,8.1,46,11,46h42  c2.9,0,4.2-0.7,5.1-1.7C61.2,41.1,63,36.8,63,32S61.2,22.9,58.1,19.7z M8.5,38C7.7,38,7,38.7,7,39.5S7.7,41,8.5,41s1.5-0.7,1.5-1.5  S9.3,38,8.5,38z M56.5,26c0.8,0,1.5,0.7,1.5,1.5S57.3,29,56.5,29S55,28.3,55,27.5S55.7,26,56.5,26z M6,27c0-0.6,0.4-1,1-1h1  c0.6,0,1,0.4,1,1c0,0,0,0,0,0.5s-0.1,0.6-0.2,0.7c-0.2,0.1-0.4,0.4-0.6,0.5C7.9,28.9,7.7,29,7.5,29s-0.4-0.1-0.7-0.3  c-0.2-0.2-0.5-0.4-0.6-0.5C6.1,28.1,6,28,6,27.5S6,27,6,27z M8.2,31.3c0.2,0.2,0.5,0.4,0.6,0.5C8.9,31.9,9,32,9,32.5S9,33,9,33  c0,0.6-0.4,1-1,1H7c-0.6,0-1-0.4-1-1c0,0,0,0,0-0.5s0.1-0.6,0.2-0.7c0.2-0.1,0.4-0.4,0.6-0.5C7.1,31.1,7.3,31,7.5,31  S7.9,31.1,8.2,31.3z M5.7,31.3c-0.1,0.1-0.2,0.2-0.7,0.2s-0.5,0-0.5,0c-0.6,0-1-0.4-1-1v-1c0-0.6,0.4-1,1-1c0,0,0,0,0.5,0  s0.6,0.1,0.7,0.2c0.1,0.2,0.3,0.4,0.5,0.6c0.2,0.2,0.3,0.4,0.3,0.7s-0.1,0.4-0.3,0.7C6,30.9,5.8,31.1,5.7,31.3L5.7,31.3z M8.5,42  C7.1,42,6,40.9,6,39.5S7.1,37,8.5,37s2.5,1.1,2.5,2.5S9.9,42,8.5,42z M11.5,30.5c0,0.6-0.4,1-1,1c0,0,0,0-0.5,0s-0.6-0.1-0.7-0.2  c-0.1-0.2-0.4-0.4-0.5-0.6c-0.2-0.2-0.3-0.4-0.3-0.7s0.1-0.4,0.3-0.7c0.2-0.2,0.4-0.5,0.5-0.6c0.1-0.1,0.2-0.2,0.7-0.2s0.5,0,0.5,0  c0.6,0,1,0.4,1,1V30.5z M14,41V21c0-0.6,0.4-1,1-1h34c0.6,0,1,0.4,1,1v20c0,0.6-0.4,1-1,1H15C14.4,42,14,41.6,14,41z M19.5,45h-1  c-0.3,0-0.5-0.2-0.5-0.5s0.2-0.5,0.5-0.5h1c0.3,0,0.5,0.2,0.5,0.5S19.8,45,19.5,45z M23.5,45h-1c-0.3,0-0.5-0.2-0.5-0.5  s0.2-0.5,0.5-0.5h1c0.3,0,0.5,0.2,0.5,0.5S23.8,45,23.5,45z M45.5,45c-0.7,0-1.2-0.4-1.4-1h2.8C46.7,44.6,46.2,45,45.5,45z M49.5,45  c-0.7,0-1.2-0.4-1.4-1h2.8C50.7,44.6,50.2,45,49.5,45z M53.5,32c-0.8,0-1.5-0.7-1.5-1.5s0.7-1.5,1.5-1.5s1.5,0.7,1.5,1.5  S54.3,32,53.5,32z M56.5,35c-0.8,0-1.5-0.7-1.5-1.5s0.7-1.5,1.5-1.5s1.5,0.7,1.5,1.5S57.3,35,56.5,35z M59.5,32  c-0.8,0-1.5-0.7-1.5-1.5s0.7-1.5,1.5-1.5s1.5,0.7,1.5,1.5S60.3,32,59.5,32z" />
<g
   id="g688">
	<path
   class="st0"
   d="M31.5,24.5H28v1.1C29,24.9,30.2,24.5,31.5,24.5z"
   id="path676" />
	<path
   class="st0"
   d="M35,24.5h-3.5c1.3,0,2.5,0.4,3.5,1.1V24.5z"
   id="path678" />
	<path
   class="st0"
   d="M35.5,24v2c1.2,1.1,2,2.7,2,4.5s-0.8,3.4-2,4.5v2H40V24H35.5z M38,36c-0.6,0-1-0.4-1-1c0-0.6,0.4-1,1-1   s1,0.4,1,1C39,35.6,38.6,36,38,36z"
   id="path680" />
	<path
   class="st0"
   d="M31.5,36.5H35v-1.1C34,36.1,32.8,36.5,31.5,36.5z"
   id="path682" />
	<path
   class="st0"
   d="M28,36.5h3.5c-1.3,0-2.5-0.4-3.5-1.1V36.5z"
   id="path684" />
	<path
   class="st0"
   d="M27.5,26v-2H23v13h4.5v-2c-1.2-1.1-2-2.7-2-4.5S26.3,27.1,27.5,26z M24.5,32c0.3,0,0.5,0.2,0.5,0.5   c0,0.3-0.2,0.5-0.5,0.5S24,32.8,24,32.5C24,32.2,24.2,32,24.5,32z M26,35c0,0.6-0.4,1-1,1s-1-0.4-1-1c0-0.6,0.4-1,1-1   S26,34.4,26,35z"
   id="path686" />
</g>
</svg>
